packages/design-system/src/icons/source/ic_extension.svg

<svg width="28" height="28" viewBox="0 0 28 28" fill="none" xmlns="http://www.w3.org/2000/svg">
<path d="M18.9722 7.57422C19.6929 7.64765 20.2553 8.256 20.2554 8.99609V20.4346L20.2476 20.5811C20.179 21.2536 19.6447 21.7879 18.9722 21.8564L18.8257 21.8643H7.44678L7.30029 21.8564C6.6276 21.788 6.09243 21.2537 6.02393 20.5811L6.01709 20.4346V18.4463C6.01717 17.7874 6.48348 17.2304 7.04736 16.8896C7.72641 16.4792 8.37358 15.8016 8.45166 14.8164L8.45947 14.6162C8.45947 13.6403 7.89887 12.93 7.25146 12.4648L6.97021 12.2803C6.44664 11.9675 6.01444 11.4623 5.9624 10.8643L5.95752 10.7432V8.99609C5.95757 8.20652 6.59763 7.56646 7.38721 7.56641H18.8257L18.9722 7.57422ZM7.38721 10.7383C7.38619 10.7285 7.38387 10.7505 7.42529 10.8096C7.47562 10.8813 7.56898 10.9723 7.70361 11.0527C8.67619 11.6338 9.88916 12.7885 9.88916 14.6162C9.88896 16.4007 8.74719 17.5327 7.78662 18.1133C7.64252 18.2004 7.54239 18.2981 7.48779 18.375C7.45942 18.4151 7.44951 18.4395 7.44678 18.4492V20.4346H18.8257V8.99609H7.38721V10.7383Z" fill="#767676"/>
<path d="M20.6128 13.2847C21.4024 13.2847 22.0425 13.9257 22.0425 14.7153V16.145C22.0423 16.9345 21.4023 17.5747 20.6128 17.5747C19.8233 17.5747 19.1833 16.9345 19.1831 16.145V14.7153C19.1831 13.9257 19.8232 13.2847 20.6128 13.2847ZM14.894 6.13623C15.6834 6.13644 16.3235 6.77658 16.3237 7.56592C16.3237 8.35544 15.6835 8.99638 14.894 8.99658H13.4644C12.6747 8.99658 12.0337 8.35556 12.0337 7.56592C12.0339 6.77645 12.6748 6.13623 13.4644 6.13623H14.894Z" fill="#767676"/>
</svg>

<svg xmlns="http://www.w3.org/2000/svg" fill="none" viewBox="0 0 28 28"><path fill="#767676" d="M18.972 7.574a1.43 1.43 0 0 1 1.283 1.422v11.439l-.007.146a1.43 1.43 0 0 1-1.276 1.275l-.146.008H7.446l-.146-.008a1.43 1.43 0 0 1-1.276-1.275l-.007-.146v-1.989c0-.659.466-1.216 1.03-1.556.68-.41 1.327-1.088 1.405-2.074l.007-.2c0-.976-.56-1.686-1.208-2.151l-.28-.185c-.524-.312-.957-.818-1.009-1.416l-.004-.12V8.995c0-.79.64-1.43 1.43-1.43h11.438zM7.387 10.738c0-.01-.003.013.038.072.05.071.144.162.279.243.972.58 2.185 1.736 2.185 3.563 0 1.785-1.142 2.917-2.102 3.497a1 1 0 0 0-.3.262.3.3 0 0 0-.04.074v1.986h11.379V8.996H7.387z"/><path fill="#767676" d="M20.613 13.285c.79 0 1.43.64 1.43 1.43v1.43a1.43 1.43 0 0 1-2.86 0v-1.43c0-.79.64-1.43 1.43-1.43m-5.719-7.149a1.43 1.43 0 0 1 0 2.86h-1.43a1.431 1.431 0 0 1 0-2.86z"/></svg>
